;FLAVOR:Marlin
;TIME:4330
;Filament used: 3.52857m
;Layer height: 0.28
;MINX:84.531
;MINY:101.548
;MINZ:0.28
;MAXX:151.3
;MAXY:133.452
;MAXZ:75.6
;POSTPROCESSED
;Generated with Cura_SteamEngine 4.13.1
M140 S50
M105
M190 S50
M104 S200
M105
M109 S200
M82 ;absolute extrusion mode
; Ender 3 Custom Start G-code
G92 E0 ; Reset Extruder
G28 ; Home all axes
G1 Z2.0 F3000 ; Move Z Axis up little to prevent scratching of Heat Bed
G1 X0.1 Y20 Z0.3 F5000.0 ; Move to start position
G1 X0.1 Y200.0 Z0.3 F1500.0 E15 ; Draw the first line
G1 X0.4 Y200.0 Z0.3 F5000.0 ; Move to side a little
G1 X0.4 Y20 Z0.3 F1500.0 E30 ; Draw the second line
G92 E0 ; Reset Extruder
G1 Z2.0 F3000 ; Move Z Axis up little to prevent scratching of Heat Bed
G1 X5 Y20 Z0.3 F5000.0 ; Move over to prevent blob squish
G92 E0
G92 E0
G1 F2700 E-6
;LAYER_COUNT:270
;LAYER:0
M107
M204 S500
M205 X8 Y8
G0 F7500 X88.428 Y104.233 Z0.28
;TYPE:SKIRT
G1 F2700 E0
G1 F1500 X89.169 Y103.657 E0.04152
G1 X89.956 Y103.147 E0.083
G1 X90.784 Y102.706 E0.1245
G1 X91.871 Y102.254 E0.17658
G1 X92.049 Y102.191 E0.18493
G1 X92.946 Y101.916 E0.22643
G1 X93.862 Y101.719 E0.26788
G1 X94.793 Y101.6 E0.3094
G1 X95.541 Y101.562 E0.34253
G1 X96.346 Y101.549 E0.37814
G1 X139.482 Y101.548 E2.28631
G1 X140.338 Y101.559 E2.32417
G1 X141.274 Y101.613 E2.36565
G1 X142.202 Y101.745 E2.40711
G1 X143.116 Y101.957 E2.44862
G1 X144.008 Y102.246 E2.4901
G1 X144.873 Y102.609 E2.53159
G1 X145.703 Y103.045 E2.57307
G1 X146.494 Y103.55 E2.61458
G1 X147.238 Y104.121 E2.65607
G1 X147.931 Y104.753 E2.69756
G1 X148.568 Y105.441 E2.73903
G1 X149.018 Y106.009 E2.77109
G1 X149.121 Y106.148 E2.77874
G1 X149.647 Y106.925 E2.82025
G1 X150.104 Y107.743 E2.8617
G1 X150.491 Y108.598 E2.90321
G1 X150.803 Y109.482 E2.94468
G1 X151.038 Y110.39 E2.98617
G1 X151.196 Y111.315 E3.02768
G1 X151.281 Y112.492 E3.07988
G1 X151.298 Y113.402 E3.12014
G1 X151.3 Y113.607 E3.12921
G1 X151.299 Y121.711 E3.4877
G1 X151.289 Y122.438 E3.51986
G1 X151.236 Y123.375 E3.56138
G1 X151.104 Y124.303 E3.60284
G1 X150.893 Y125.217 E3.64434
G1 X150.604 Y126.109 E3.68582
G1 X150.241 Y126.974 E3.72731
G1 X149.806 Y127.805 E3.76881
G1 X149.302 Y128.595 E3.81026
G1 X149.197 Y128.745 E3.81836
G1 X148.626 Y129.49 E3.85988
G1 X147.995 Y130.183 E3.90134
G1 X147.307 Y130.82 E3.94282
G1 X146.567 Y131.397 E3.98433
G1 X145.78 Y131.908 E4.02583
G1 X144.953 Y132.35 E4.06731
G1 X144.092 Y132.72 E4.10877
G1 X143.201 Y133.015 E4.15029
G1 X142.289 Y133.234 E4.19178
G1 X141.362 Y133.374 E4.23325
G1 X140.372 Y133.435 E4.27713
G1 X139.302 Y133.452 E4.32446
G1 X96.258 Y133.451 E6.22856
G1 X95.561 Y133.441 E6.25939
G1 X94.625 Y133.387 E6.30087
G1 X93.696 Y133.254 E6.34238
G1 X92.466 Y132.95 E6.39843
G1 X92.298 Y132.898 E6.40621
G1 X91.415 Y132.583 E6.44768
G1 X90.562 Y132.194 E6.48915
G1 X89.745 Y131.733 E6.53065
G1 X88.97 Y131.204 E6.57216
G1 X88.243 Y130.612 E6.61363
G1 X87.57 Y129.959 E6.65511
G1 X86.954 Y129.252 E6.69659
G1 X86.4 Y128.495 E6.73809
G1 X85.914 Y127.693 E6.77957
G1 X85.497 Y126.853 E6.82106
G1 X85.153 Y125.98 E6.86256
G1 X84.885 Y125.081 E6.90406
G1 X84.695 Y124.163 E6.94553
G1 X84.583 Y123.232 E6.98701
G1 X84.553 Y122.608 E7.01465
G1 X84.533 Y121.6 E7.05925
G1 X84.531 Y121.382 E7.06889
G1 X84.532 Y113.136 E7.43366
G1 X84.542 Y112.461 E7.46352
G1 X84.596 Y111.525 E7.505
G1 X84.729 Y110.596 E7.54651
G1 X84.942 Y109.683 E7.58798
G1 X85.231 Y108.791 E7.62946
G1 X85.595 Y107.926 E7.67097
G1 X86.031 Y107.096 E7.71245
G1 X86.536 Y106.306 E7.75392
G1 X87.107 Y105.562 E7.79541
G1 X87.739 Y104.869 E7.8369
G1 X88.428 Y104.233 E7.87838
G0 F7500 X88.817 Y104.43
G1 F1500 X89.553 Y103.877 E7.9191
G1 X90.335 Y103.391 E7.95983
G1 X91.156 Y102.974 E8.00057
G1 X92.004 Y102.631 E8.04103
G1 X92.182 Y102.568 E8.04938
G1 X93.063 Y102.299 E8.09013
G1 X93.963 Y102.107 E8.13084
G1 X94.877 Y101.995 E8.17157
G1 X95.548 Y101.962 E8.20129
G1 X96.353 Y101.949 E8.23691
G1 X139.482 Y101.948 E10.14476
G1 X140.332 Y101.959 E10.18236
G1 X141.251 Y102.012 E10.22308
G1 X142.162 Y102.145 E10.26381
G1 X143.058 Y102.356 E10.30453
G1 X143.932 Y102.644 E10.34524
G1 X144.779 Y103.007 E10.386
G1 X145.59 Y103.442 E10.42671
G1 X146.36 Y103.946 E10.46742
G1 X147.084 Y104.515 E10.50815
G1 X147.756 Y105.145 E10.5489
G1 X148.371 Y105.83 E10.58962
G1 X148.697 Y106.247 E10.61304
G1 X148.8 Y106.386 E10.62069
G1 X149.315 Y107.149 E10.66141
G1 X149.762 Y107.954 E10.70214
G1 X150.138 Y108.794 E10.74285
G1 X150.44 Y109.664 E10.78359
G1 X150.665 Y110.557 E10.82433
G1 X150.811 Y111.466 E10.86506
G1 X150.881 Y112.499 E10.91086
G1 X150.9 Y113.607 E10.95988
G1 X150.899 Y121.706 E11.31814
G1 X150.889 Y122.433 E11.35031
G1 X150.836 Y123.352 E11.39103
G1 X150.704 Y124.263 E11.43175
G1 X150.493 Y125.159 E11.47247
G1 X150.206 Y126.034 E11.5132
G1 X149.843 Y126.88 E11.55392
G1 X149.409 Y127.692 E11.59465
G1 X148.974 Y128.366 E11.63014
G1 X148.869 Y128.516 E11.63824
G1 X148.309 Y129.246 E11.67894
G1 X147.687 Y129.926 E11.7197
G1 X147.009 Y130.548 E11.76041
G1 X146.279 Y131.11 E11.80116
G1 X145.504 Y131.606 E11.84186
G1 X144.688 Y132.033 E11.8826
G1 X143.839 Y132.387 E11.92329
G1 X142.961 Y132.667 E11.96406
G1 X142.063 Y132.869 E12.00477
G1 X141.151 Y132.993 E12.04549
G1 X140.365 Y133.035 E12.08031
G1 X139.302 Y133.052 E12.12734
G1 X96.264 Y133.051 E14.03117
G1 X95.567 Y133.041 E14.062
G1 X94.648 Y132.988 E14.10272
G1 X93.737 Y132.855 E14.14345
G1 X92.585 Y132.568 E14.19596
G1 X92.417 Y132.516 E14.20374
G1 X91.55 Y132.206 E14.24447
G1 X90.713 Y131.822 E14.28521
G1 X89.913 Y131.366 E14.32595
G1 X89.155 Y130.843 E14.36668
G1 X88.446 Y130.256 E14.4074
G1 X87.79 Y129.61 E14.44813
G1 X87.193 Y128.91 E14.48882
G1 X86.659 Y128.16 E14.52955
G1 X86.192 Y127.366 E14.5703
G1 X85.795 Y126.536 E14.611
G1 X85.472 Y125.673 E14.65176
G1 X85.225 Y124.786 E14.69249
G1 X85.056 Y123.881 E14.73322
G1 X84.953 Y122.6 E14.79007
G1 X84.933 Y121.592 E14.83467
G1 X84.931 Y121.382 E14.84396
G1 X84.932 Y113.142 E15.20846
G1 X84.942 Y112.467 E15.23832
G1 X84.996 Y111.548 E15.27905
G1 X85.129 Y110.637 E15.31977
G1 X85.341 Y109.741 E15.3605
G1 X85.629 Y108.867 E15.40121
G1 X85.993 Y108.021 E15.44195
G1 X86.428 Y107.21 E15.48266
G1 X86.932 Y106.439 E15.52341
G1 X87.501 Y105.716 E15.56411
G1 X88.131 Y105.044 E15.60485
G1 X88.817 Y104.43 E15.64558
G0 F7500 X89.205 Y104.631
G1 F1500 X89.936 Y104.102 E15.68549
G1 X90.712 Y103.639 E15.72547
G1 X91.526 Y103.248 E15.76541
G1 X92.138 Y103.008 E15.79449
G1 X92.316 Y102.945 E15.80285
G1 X93.18 Y102.682 E15.8428
G1 X94.063 Y102.496 E15.88271
G1 X94.96 Y102.389 E15.92268
G1 X95.554 Y102.362 E15.94898
G1 X96.524 Y102.348 E15.99189
G1 X139.482 Y102.348 E17.89218
G1 X140.326 Y102.359 E17.92952
G1 X141.228 Y102.412 E17.96949
G1 X142.121 Y102.544 E18.00942
G1 X142.999 Y102.755 E18.04937
G1 X143.855 Y103.043 E18.08932
G1 X144.682 Y103.405 E18.12925
G1 X145.474 Y103.84 E18.16922
G1 X146.225 Y104.342 E18.20918
G1 X146.928 Y104.909 E18.24914
G1 X147.578 Y105.536 E18.28909
G1 X148.375 Y106.485 E18.34391
G1 X148.478 Y106.624 E18.35156
G1 X148.983 Y107.373 E18.39152
G1 X149.42 Y108.163 E18.43146
G1 X149.785 Y108.989 E18.4714
G1 X150.076 Y109.844 E18.51136
G1 X150.29 Y110.722 E18.55133
G1 X150.425 Y111.615 E18.59128
G1 X150.481 Y112.506 E18.63078
G1 X150.5 Y113.607 E18.67949
G1 X150.499 Y121.7 E19.03749
G1 X150.489 Y122.427 E19.06965
G1 X150.437 Y123.329 E19.10962
G1 X150.305 Y124.222 E19.14955
G1 X150.094 Y125.101 E19.18954
G1 X149.807 Y125.957 E19.22948
G1 X149.445 Y126.784 E19.26941
G1 X149.011 Y127.576 E19.30936
G1 X148.646 Y128.136 E19.33893
G1 X148.541 Y128.286 E19.34703
G1 X147.991 Y129.003 E19.387
G1 X147.38 Y129.667 E19.42692
G1 X146.712 Y130.275 E19.46688
G1 X145.993 Y130.822 E19.50684
G1 X145.229 Y131.303 E19.54678
G1 X144.425 Y131.714 E19.58672
G1 X143.587 Y132.053 E19.62671
G1 X142.724 Y132.316 E19.66662
G1 X141.84 Y132.502 E19.70658
G1 X140.943 Y132.609 E19.74654
G1 X140.358 Y132.636 E19.77245
G1 X139.475 Y132.651 E19.81151
G1 X96.416 Y132.652 E21.71627
G1 X95.573 Y132.641 E21.75356
G1 X94.671 Y132.588 E21.79353
G1 X93.778 Y132.456 E21.83346
G1 X92.703 Y132.186 E21.88249
G1 X92.535 Y132.134 E21.89027
G1 X91.685 Y131.829 E21.93022
G1 X90.865 Y131.45 E21.97018
G1 X90.082 Y131 E22.01013
G1 X89.342 Y130.483 E22.05006
G1 X88.651 Y129.902 E22.09
G1 X88.013 Y129.262 E22.12998
G1 X87.435 Y128.568 E22.16993
G1 X86.92 Y127.826 E22.20988
G1 X86.473 Y127.041 E22.24984
G1 X86.097 Y126.22 E22.28979
G1 X85.796 Y125.369 E22.32972
G1 X85.57 Y124.494 E22.3697
G1 X85.423 Y123.603 E22.40964
G1 X85.353 Y122.592 E22.45447
G1 X85.333 Y121.584 E22.49907
G1 X85.331 Y121.382 E22.50801
G1 X85.332 Y113.148 E22.87225
G1 X85.342 Y112.473 E22.90211
G1 X85.395 Y111.571 E22.94208
G1 X85.528 Y110.678 E22.98202
G1 X85.74 Y109.8 E23.02197
G1 X86.028 Y108.944 E23.06192
G1 X86.391 Y108.117 E23.10188
G1 X86.825 Y107.325 E23.14183
G1 X87.328 Y106.575 E23.18177
G1 X87.895 Y105.873 E23.22169
G1 X88.522 Y105.223 E23.26164
G1 X89.205 Y104.631 E23.30163
G1 F2700 E17.30163
;MESH:PLATempTower
G0 F7500 X95.595 Y111.886
G0 X95.945 Y112.962
G0 X96.531 Y113.548
;TYPE:WALL-INNER
G1 F2700 E23.30163
G1 F1800 X139.3 Y113.548 E25.19355
G1 X139.3 Y121.452 E25.54319
G1 X96.531 Y121.452 E27.43512
G1 X96.531 Y113.548 E27.78476
G0 F7500 X96.131 Y113.148
G1 F1800 X139.7 Y113.148 E29.71208
G1 X139.7 Y121.852 E30.09711
G1 X96.131 Y121.852 E32.02443
G1 X96.131 Y113.148 E32.40946
G0 F7500 X95.731 Y112.751
;TYPE:WALL-OUTER
G1 F1800 X95.74 Y112.748 E32.40986
G1 X140.087 Y112.748 E34.2735
G1 X140.1 Y112.766 E34.27444
G1 X140.1 Y122.234 E34.67232
G1 X140.087 Y122.252 E34.67326
G1 X95.74 Y122.252 E36.5369
G1 X95.731 Y122.249 E36.5373
G1 X95.731 Y112.751 E36.93645
G0 F7500 X95.74 Y112.748
G0 X96.131 Y112.748
G0 X96.171 Y113.188
G0 X96.921 Y113.658
G0 X96.921 Y113.938
;TYPE:SKIN
G1 F1800 X138.91 Y113.938 E38.79387
G1 X138.91 Y121.062 E39.10901
G1 X96.921 Y121.062 E40.96643
G1 X96.921 Y113.938 E41.28157
G0 F7500 X96.921 Y113.658
G0 X96.713 Y121.27
G0 X97.162 Y121.342
G0 X97.162 Y120.921
G1 F1800 X97.061 Y120.819 E41.28792
G0 F7500 X97.061 Y120.254
G1 F1800 X97.728 Y120.921 E41.32965
G0 F7500 X98.294 Y120.921
G1 F1800 X97.061 Y119.688 E41.40678
G0 F7500 X97.061 Y119.122
G1 F1800 X98.859 Y120.921 E41.51929
G0 F7500 X99.425 Y120.921
G1 F1800 X97.061 Y118.557 E41.66718
G0 F7500 X97.061 Y117.991
G1 F1800 X99.991 Y120.921 E41.85048
G0 F7500 X100.556 Y120.921
G1 F1800 X97.061 Y117.425 E42.06916
G0 F7500 X97.061 Y116.86
G1 F1800 X101.122 Y120.921 E42.32321
G0 F7500 X101.688 Y120.921
G1 F1800 X97.061 Y116.294 E42.61267
G0 F7500 X97.061 Y115.728
G1 F1800 X102.254 Y120.921 E42.93754
G0 F7500 X102.819 Y120.921
G1 F1800 X97.061 Y115.162 E43.29779
G0 F7500 X97.061 Y114.597
G1 F1800 X103.385 Y120.921 E43.69341
G0 F7500 X103.951 Y120.921
G1 F1800 X97.106 Y114.077 E44.1216
G0 F7500 X97.672 Y114.077
G1 F1800 X104.516 Y120.921 E44.54975
G0 F7500 X105.082 Y120.921
G1 F1800 X98.238 Y114.077 E44.97791
G0 F7500 X98.804 Y114.077
G1 F1800 X105.648 Y120.921 E45.40606
G0 F7500 X106.213 Y120.921
G1 F1800 X99.369 Y114.077 E45.83422
G0 F7500 X99.935 Y114.077
G1 F1800 X106.779 Y120.921 E46.26237
G0 F7500 X107.345 Y120.921
G1 F1800 X100.501 Y114.077 E46.69053
G0 F7500 X101.066 Y114.077
G1 F1800 X107.91 Y120.921 E47.11868
G0 F7500 X108.476 Y120.921
G1 F1800 X101.632 Y114.077 E47.54683
G0 F7500 X102.198 Y114.077
G1 F1800 X109.042 Y120.921 E47.97499
G0 F7500 X109.607 Y120.921
G1 F1800 X102.763 Y114.077 E48.40314
G0 F7500 X103.329 Y114.077
G1 F1800 X110.173 Y120.921 E48.8313
G0 F7500 X110.739 Y120.921
G1 F1800 X103.895 Y114.077 E49.25945
G0 F7500 X104.46 Y114.077
G1 F1800 X111.304 Y120.921 E49.68761
G0 F7500 X111.87 Y120.921
G1 F1800 X105.026 Y114.077 E50.11576
G0 F7500 X105.592 Y114.077
G1 F1800 X112.436 Y120.921 E50.54392
G0 F7500 X113.002 Y120.921
G1 F1800 X106.157 Y114.077 E50.9721
G0 F7500 X106.723 Y114.077
G1 F1800 X113.567 Y120.921 E51.40026
G0 F7500 X114.133 Y120.921
G1 F1800 X107.289 Y114.077 E51.82841
G0 F7500 X107.854 Y114.077
G1 F1800 X114.699 Y120.921 E52.2566
G0 F7500 X115.264 Y120.921
G1 F1800 X108.42 Y114.077 E52.68475
G0 F7500 X108.986 Y114.077
G1 F1800 X115.83 Y120.921 E53.11291
G0 F7500 X116.396 Y120.921
G1 F1800 X109.552 Y114.077 E53.54106
G0 F7500 X110.117 Y114.077
G1 F1800 X116.961 Y120.921 E53.96922
G0 F7500 X117.527 Y120.921
G1 F1800 X110.683 Y114.077 E54.39737
G0 F7500 X111.249 Y114.077
G1 F1800 X118.093 Y120.921 E54.82553
G0 F7500 X118.658 Y120.921
G1 F1800 X111.814 Y114.077 E55.25368
G0 F7500 X112.38 Y114.077
G1 F1800 X119.224 Y120.921 E55.68184
G0 F7500 X119.79 Y120.921
G1 F1800 X112.946 Y114.077 E56.10999
G0 F7500 X113.511 Y114.077
G1 F1800 X120.355 Y120.921 E56.53814
G0 F7500 X120.921 Y120.921
G1 F1800 X114.077 Y114.077 E56.9663
G0 F7500 X114.643 Y114.077
G1 F1800 X121.487 Y120.921 E57.39445
G0 F7500 X122.052 Y120.921
G1 F1800 X115.208 Y114.077 E57.82261
G0 F7500 X115.774 Y114.077
G1 F1800 X122.618 Y120.921 E58.25076
G0 F7500 X123.184 Y120.921
G1 F1800 X116.34 Y114.077 E58.67892
G0 F7500 X116.905 Y114.077
G1 F1800 X123.75 Y120.921 E59.1071
G0 F7500 X124.315 Y120.921
G1 F1800 X117.471 Y114.077 E59.53526
G0 F7500 X118.038 Y114.078
G1 F1800 X124.881 Y120.921 E59.96335
G0 F7500 X125.447 Y120.921
G1 F1800 X118.603 Y114.078 E60.39147
G0 F7500 X119.169 Y114.078
G1 F1800 X126.012 Y120.921 E60.81957
G0 F7500 X126.578 Y120.921
G1 F1800 X119.735 Y114.078 E61.24766
G0 F7500 X120.3 Y114.078
G1 F1800 X127.144 Y120.921 E61.67578
G0 F7500 X127.709 Y120.921
G1 F1800 X120.866 Y114.078 E62.10387
G0 F7500 X121.432 Y114.078
G1 F1800 X128.275 Y120.921 E62.53197
G0 F7500 X128.841 Y120.921
G1 F1800 X121.997 Y114.078 E62.96009
G0 F7500 X122.563 Y114.078
G1 F1800 X129.406 Y120.921 E63.38818
G0 F7500 X129.972 Y120.921
G1 F1800 X123.129 Y114.078 E63.81627
G0 F7500 X123.694 Y114.078
G1 F1800 X130.538 Y120.921 E64.2444
G0 F7500 X131.103 Y120.921
G1 F1800 X124.26 Y114.078 E64.67249
G0 F7500 X124.826 Y114.078
G1 F1800 X131.669 Y120.921 E65.10058
G0 F7500 X132.235 Y120.921
G1 F1800 X125.391 Y114.078 E65.5287
G0 F7500 X125.957 Y114.078
G1 F1800 X132.801 Y120.921 E65.95683
G0 F7500 X133.366 Y120.921
G1 F1800 X126.523 Y114.078 E66.38492
G0 F7500 X127.089 Y114.078
G1 F1800 X133.932 Y120.921 E66.81301
G0 F7500 X134.498 Y120.921
G1 F1800 X127.654 Y114.078 E67.24113
G0 F7500 X128.22 Y114.078
G1 F1800 X135.063 Y120.921 E67.66923
G0 F7500 X135.629 Y120.921
G1 F1800 X128.786 Y114.078 E68.09732
G0 F7500 X129.351 Y114.078
G1 F1800 X136.195 Y120.921 E68.52544
G0 F7500 X136.76 Y120.921
G1 F1800 X129.917 Y114.078 E68.95353
G0 F7500 X130.483 Y114.078
G1 F1800 X137.326 Y120.921 E69.38163
G0 F7500 X137.892 Y120.921
G1 F1800 X131.048 Y114.078 E69.80975
G0 F7500 X131.614 Y114.078
G1 F1800 X138.457 Y120.921 E70.23784
G0 F7500 X138.768 Y120.667
G1 F1800 X132.18 Y114.078 E70.65001
G0 F7500 X132.745 Y114.078
G1 F1800 X138.768 Y120.101 E71.02681
G0 F7500 X138.768 Y119.535
G1 F1800 X133.311 Y114.078 E71.36819
G0 F7500 X133.877 Y114.078
G1 F1800 X138.768 Y118.97 E71.6742
G0 F7500 X138.768 Y118.404
G1 F1800 X134.442 Y114.078 E71.94483
G0 F7500 X135.008 Y114.078
G1 F1800 X138.768 Y117.838 E72.18005
G0 F7500 X138.768 Y117.272
G1 F1800 X135.574 Y114.078 E72.37987
G0 F7500 X136.139 Y114.078
G1 F1800 X138.768 Y116.707 E72.54433
G0 F7500 X138.768 Y116.141
G1 F1800 X136.705 Y114.078 E72.67339
G0 F7500 X137.271 Y114.078
G1 F1800 X138.768 Y115.575 E72.76704
G0 F7500 X138.768 Y115.01
G1 F1800 X137.837 Y114.078 E72.82532
G0 F7500 X138.402 Y114.078
G1 F1800 X138.768 Y114.444 E72.84821
G0 F7500 X139.49 Y114.444
G1 F2700 E66.84821
;MESH:NONMESH
G0 F300 X139.49 Y114.444 Z0.56
G0 F7500 X139.118 Y113.73
G0 X96.531 Y113.548
